X: 6
T: Snug In The Blanket
R: jig
M: 6/8
L: 1/8
K: Dmix
|: A2 B cBc | ~E3 c2 A | B2 G AFD | ~G3 BAG |A/A/AB cBc | ~E3 c2 A | B/c/dB cAF | G2 A BAG :||: FGA AFd | AFd AFd | FGA AFD | EFG GFE |FGA AFd | AFd ABc | B/c/dB cAF | ~G2 A BAG :||: FGA AFA | ~D3 AFD | FGA AFD | GAB BAG |FGA AFA | ~D3 ABc | B/c/dB cAF | G2 A BAG :|~ | EFG GFE | ~ & ~ | GAB BAG | ~~ | ~E2 F GFE | ~ or ~ | E2 F G2 E | ~ or ~ | G2 A B2 G | ~ or ~ | ~G2 A BAG | ~ or ~ | ~G3 B2 G | ~ ..


Tune 1747	Setting 29429

